icons/actions/24/visibility.svg

<?xml version="1.0"?>
<!-- Created with Inkscape (http://www.inkscape.org/) -->
<svg xmlns:dc="http://purl.org/dc/elements/1.1/" xmlns:cc="http://creativecommons.org/ns#" xmlns:rdf="http://www.w3.org/1999/02/22-rdf-syntax-ns#" xmlns:svg="http://www.w3.org/2000/svg" xmlns="http://www.w3.org/2000/svg" xmlns:sodipodi="http://sodipodi.sourceforge.net/DTD/sodipodi-0.dtd" xmlns:inkscape="http://www.inkscape.org/namespaces/inkscape" width="24" height="24" id="svg3869" version="1.1" inkscape:version="0.91 r13725" sodipodi:docname="visibility.svg">
  <defs id="defs3871">
    <style type="text/css" id="current-color-scheme">
      .ColorScheme-Text {
        color:#4d4d4d;
      }
      .ColorScheme-Background {
        color:#eff0f1;
      }
      .ColorScheme-Highlight {
        color:#3daee9;
      }
      .ColorScheme-ViewText {
        color:#31363b;
      }
      .ColorScheme-ViewBackground {
        color:#fcfcfc;
      }
      .ColorScheme-ViewHover {
        color:#93cee9;
      }
      .ColorScheme-ViewFocus{
        color:#3daee9;
      }
      .ColorScheme-ButtonText {
        color:#31363b;
      }
      .ColorScheme-ButtonBackground {
        color:#eff0f1;
      }
      .ColorScheme-ButtonHover {
        color:#93cee9;
      }
      .ColorScheme-ButtonFocus{
        color:#3daee9;
      }
      </style>
    <linearGradient id="linearGradient3257">
      <stop offset="0" style="stop-color:#a50000;stop-opacity:1" id="stop3259"/>
      <stop offset="1" style="stop-color:#e73800;stop-opacity:1" id="stop3261"/>
    </linearGradient>
    <clipPath clipPathUnits="userSpaceOnUse" id="clipPath4210">
      <rect y="1024.3622" x="-7" height="34" width="34" id="rect4212" style="opacity:1;fill:#0000ff;fill-opacity:0.51376145;stroke:none;stroke-opacity:1"/>
    </clipPath>
    <clipPath clipPathUnits="userSpaceOnUse" id="clipPath4160">
      <rect style="opacity:1;fill:#aade87;fill-opacity:0.47247709;stroke:none;stroke-opacity:1" id="rect4162" width="32" height="32.000015" x="-6" y="1028.3619"/>
    </clipPath>
    <clipPath id="clipPath4160-4" clipPathUnits="userSpaceOnUse">
      <rect y="1023.3622" x="7" height="1" width="1" id="rect4162-5" style="opacity:1;fill:#f2f2f2;fill-opacity:1;stroke:none;stroke-opacity:1"/>
    </clipPath>
  </defs>
  <sodipodi:namedview id="base" pagecolor="#ffffff" bordercolor="#666666" borderopacity="1.0" inkscape:pageopacity="0.0" inkscape:pageshadow="2" inkscape:zoom="22.627416" inkscape:cx="5.4926209" inkscape:cy="10.264796" inkscape:document-units="px" inkscape:current-layer="layer1" showgrid="true" fit-margin-top="0" fit-margin-left="0" fit-margin-right="0" fit-margin-bottom="0" inkscape:window-width="1366" inkscape:window-height="709" inkscape:window-x="-4" inkscape:window-y="0" inkscape:window-maximized="1" inkscape:showpageshadow="false" inkscape:object-nodes="true" inkscape:snap-bbox="true">
    <inkscape:grid type="xygrid" id="grid4132"/>
    <sodipodi:guide position="4,18" orientation="18,0" id="guide4138"/>
    <sodipodi:guide position="5,3" orientation="0,18" id="guide4140"/>
    <sodipodi:guide position="20,2.0000174" orientation="-18,0" id="guide4142"/>
    <sodipodi:guide position="2,21" orientation="0,-18" id="guide4144"/>
    <sodipodi:guide position="3,19.000017" orientation="16,0" id="guide4146"/>
    <sodipodi:guide position="2,4" orientation="0,16" id="guide4148"/>
    <sodipodi:guide position="21,20" orientation="-16,0" id="guide4150"/>
    <sodipodi:guide position="2,20" orientation="0,-16" id="guide4152"/>
  </sodipodi:namedview>
  <metadata id="metadata3874">
    <rdf:RDF>
      <cc:Work rdf:about="">
        <dc:format>image/svg+xml</dc:format>
        <dc:type rdf:resource="http://purl.org/dc/dcmitype/StillImage"/>
        <dc:title/>
      </cc:Work>
    </rdf:RDF>
  </metadata>
  <g inkscape:label="Capa 1" inkscape:groupmode="layer" id="layer1" transform="translate(-326,-532.3622)">
    <g transform="translate(326.99805,-496.5)" id="layer1-3" inkscape:label="Capa 1">
      <path id="rect4148" transform="translate(0,1030.3622)" d="m 11,6 a 10,9.9999752 0 0 0 -8.6855469,5.070312 c 0.1851088,0.291428 0.4456268,0.526926 0.7519531,0.689454 A 9,8.9999781 0 0 1 11,7 a 4,4 0 0 0 -4,4 4,4 0 0 0 4,4 4,4 0 0 0 4,-4 4,4 0 0 0 -3.65625,-3.9824219 9,8.9999781 0 0 1 7.587891,4.7441409 c 0.309422,-0.163642 0.571983,-0.402424 0.757812,-0.697266 A 10,9.9999752 0 0 0 11,6 Z m 0,2 a 3,3 0 0 1 3,3 3,3 0 0 1 -3,3 3,3 0 0 1 -3,-3 3,3 0 0 1 3,-3 z m 0,1 c -1.108,0 -2,0.892 -2,2 0,1.108 0.892,2 2,2 1.108,0 2,-0.892 2,-2 0,-0.20481 -0.03902,-0.398205 -0.0957,-0.583984 C 12.746415,10.759733 12.404317,11 12,11 11.446,11 11,10.554 11,10 11,9.5956829 11.240267,9.253585 11.583984,9.0957031 11.398205,9.0390166 11.20481,9 11,9 Z" style="opacity:1;fill:currentColor;fill-opacity:1" inkscape:connector-curvature="0" class="ColorScheme-Text"/>
    </g>
  </g>
</svg>

<svg xmlns="http://www.w3.org/2000/svg" viewBox="0 0 24 24">
  <defs id="defs3051">
    <style type="text/css" id="current-color-scheme">
      .ColorScheme-Text {
        color:#4d4d4d;
      }
      </style>
  </defs>
  <a transform="translate(1,1)">
 <path 
    style="fill:currentColor;fill-opacity:1;stroke:none" 
    d="M 11 6 A 10 9.999975 0 0 0 2.3144531 11.070312 C 2.4995621 11.361743 2.7600802 11.597238 3.0664062 11.759766 A 9 8.999978 0 0 1 11 7 A 4 4 0 0 0 7 11 A 4 4 0 0 0 11 15 A 4 4 0 0 0 15 11 A 4 4 0 0 0 11.34375 7.0175781 A 9 8.999978 0 0 1 18.931641 11.761719 C 19.241063 11.598077 19.503624 11.359298 19.689453 11.064453 A 10 9.999975 0 0 0 11 6 z M 11 8 A 3 3 0 0 1 14 11 A 3 3 0 0 1 11 14 A 3 3 0 0 1 8 11 A 3 3 0 0 1 11 8 z M 11 9 C 9.892 9 9 9.892 9 11 C 9 12.108 9.892 13 11 13 C 12.108 13 13 12.108 13 11 C 13 10.79519 12.960983 10.601795 12.904297 10.416016 C 12.746415 10.759733 12.404317 11 12 11 C 11.446 11 11 10.554 11 10 C 11 9.595683 11.240267 9.2535881 11.583984 9.0957031 C 11.398205 9.0390231 11.20481 9 11 9 z "
	class="ColorScheme-Text"
    />  
</a>
</svg>
